build/category/DesktopOutline.svg

<svg xmlns="http://www.w3.org/2000/svg" fill="none" viewBox="0 0 24 24" focusable="false"><path d="M0 0H24V24H0z"/><path fill="#74767B" fill-rule="evenodd" d="M3 7C3 5.34315 4.34315 4 6 4L18 4C19.6569 4 21 5.34315 21 7L21 14.0022C21 15.659 19.6569 17.0022 18 17.0022L14 17.0022L14 18.7L15.3512 18.7C15.7102 18.7 16.0012 18.991 16.0012 19.35C16.0012 19.7089 15.7102 20 15.3512 20L8.64876 20C8.28978 20 7.99876 19.7089 7.99876 19.35C7.99876 18.991 8.28978 18.7 8.64876 18.7L10 18.7L10 17.0022L6 17.0022C4.34315 17.0022 3 15.659 3 14.0022L3 7ZM6 5.3L18 5.3C18.9389 5.3 19.7 6.06112 19.7 7L19.7 13.0999L4.3 13.0999L4.3 7C4.3 6.06112 5.06112 5.3 6 5.3ZM4.34677 14.3999C4.52581 15.1469 5.19806 15.7022 6 15.7022L18 15.7022C18.8019 15.7022 19.4742 15.1469 19.6532 14.3999L4.34677 14.3999ZM12.7 17.3L12.7 18.7L11.3 18.7L11.3 17.3L12.7 17.3Z"/></svg>

<svg xmlns="http://www.w3.org/2000/svg" fill="none" viewBox="0 0 24 24" focusable="false"><path fill="#74767B" fill-rule="evenodd" d="M3 7c0-1.66 1.34-3 3-3h12c1.65 0 3 1.34 3 3v7c0 1.65-1.35 3-3 3h-4v1.7h1.35c.36 0 .65.29.65.65 0 .35-.29.64-.65.64H8.64c-.36 0-.65-.29-.65-.64 0-.36.29-.65.65-.65H10V17H6c-1.66 0-3-1.35-3-3zm3-1.71h12c.93 0 1.7.77 1.7 1.71v6.09H4.29V7c0-.94.77-1.71 1.71-1.71m-1.66 9.1c.18.75.85 1.31 1.66 1.31h12c.8 0 1.47-.56 1.65-1.31zm8.36 2.9v1.41h-1.41v-1.41z"/></svg>
